resources/images/kalendarz-big.svg

<svg width="40" height="40" viewBox="0 0 40 40" fill="none" xmlns="http://www.w3.org/2000/svg">
<g clip-path="url(#clip0_1748_326)">
<g>
<g>
<g>
<path d="M21.7969 28.4375C21.7969 30.1606 23.1988 31.5625 24.9219 31.5625H28.5938C30.3169 31.5625 31.7188 30.1606 31.7188 28.4375V24.7656C31.7188 23.0425 30.3169 21.6406 28.5938 21.6406H24.9219C23.1988 21.6406 21.7969 23.0425 21.7969 24.7656V28.4375ZM24.9219 24.7656H28.5938L28.5957 28.4374C28.5957 28.4374 28.5952 28.4375 28.5938 28.4375H24.9219V24.7656Z" fill="#0296D8"/>
<path d="M30.1562 17.9688C31.0192 17.9688 31.7188 17.2692 31.7188 16.4062C31.7188 15.5433 31.0192 14.8438 30.1562 14.8438C29.2933 14.8438 28.5938 15.5433 28.5938 16.4062C28.5938 17.2692 29.2933 17.9688 30.1562 17.9688Z" fill="#0296D8"/>
<path d="M23.3594 17.9688C24.2223 17.9688 24.9219 17.2692 24.9219 16.4062C24.9219 15.5433 24.2223 14.8438 23.3594 14.8438C22.4964 14.8438 21.7969 15.5433 21.7969 16.4062C21.7969 17.2692 22.4964 17.9688 23.3594 17.9688Z" fill="#0296D8"/>
<path d="M38.4375 27.5C39.3005 27.5 40 26.8005 40 25.9375V9.375C40 5.92875 37.1963 3.125 33.75 3.125H31.7188V1.5625C31.7188 0.699531 31.0192 0 30.1562 0C29.2933 0 28.5938 0.699531 28.5938 1.5625V3.125H21.4844V1.5625C21.4844 0.699531 20.7848 0 19.9219 0C19.0589 0 18.3594 0.699531 18.3594 1.5625V3.125H11.3281V1.5625C11.3281 0.699531 10.6286 0 9.76562 0C8.90266 0 8.20312 0.699531 8.20312 1.5625V3.125H6.25C2.80375 3.125 0 5.92875 0 9.375V33.75C0 37.1963 2.80375 40 6.25 40H33.75C37.1963 40 40 37.1963 40 33.75C40 32.887 39.3005 32.1875 38.4375 32.1875C37.5745 32.1875 36.875 32.887 36.875 33.75C36.875 35.4731 35.4731 36.875 33.75 36.875H6.25C4.52688 36.875 3.125 35.4731 3.125 33.75V9.375C3.125 7.65188 4.52688 6.25 6.25 6.25H8.20312V7.8125C8.20312 8.67547 8.90266 9.375 9.76562 9.375C10.6286 9.375 11.3281 8.67547 11.3281 7.8125V6.25H18.3594V7.8125C18.3594 8.67547 19.0589 9.375 19.9219 9.375C20.7848 9.375 21.4844 8.67547 21.4844 7.8125V6.25H28.5938V7.8125C28.5938 8.67547 29.2933 9.375 30.1562 9.375C31.0192 9.375 31.7188 8.67547 31.7188 7.8125V6.25H33.75C35.4731 6.25 36.875 7.65188 36.875 9.375V25.9375C36.875 26.8005 37.5745 27.5 38.4375 27.5Z" fill="#0296D8"/>
<path d="M9.76562 31.5625C10.6286 31.5625 11.3281 30.8629 11.3281 30C11.3281 29.1371 10.6286 28.4375 9.76562 28.4375C8.90268 28.4375 8.20312 29.1371 8.20312 30C8.20312 30.8629 8.90268 31.5625 9.76562 31.5625Z" fill="#0296D8"/>
<path d="M9.76562 17.9688C10.6286 17.9688 11.3281 17.2692 11.3281 16.4062C11.3281 15.5433 10.6286 14.8438 9.76562 14.8438C8.90268 14.8438 8.20312 15.5433 8.20312 16.4062C8.20312 17.2692 8.90268 17.9688 9.76562 17.9688Z" fill="#0296D8"/>
<path d="M9.76562 24.7656C10.6286 24.7656 11.3281 24.0661 11.3281 23.2031C11.3281 22.3402 10.6286 21.6406 9.76562 21.6406C8.90268 21.6406 8.20312 22.3402 8.20312 23.2031C8.20312 24.0661 8.90268 24.7656 9.76562 24.7656Z" fill="#0296D8"/>
<path d="M16.5625 24.7656C17.4254 24.7656 18.125 24.0661 18.125 23.2031C18.125 22.3402 17.4254 21.6406 16.5625 21.6406C15.6996 21.6406 15 22.3402 15 23.2031C15 24.0661 15.6996 24.7656 16.5625 24.7656Z" fill="#0296D8"/>
<path d="M16.5625 17.9688C17.4254 17.9688 18.125 17.2692 18.125 16.4062C18.125 15.5433 17.4254 14.8438 16.5625 14.8438C15.6996 14.8438 15 15.5433 15 16.4062C15 17.2692 15.6996 17.9688 16.5625 17.9688Z" fill="#0296D8"/>
<path d="M16.5625 31.5625C17.4254 31.5625 18.125 30.8629 18.125 30C18.125 29.1371 17.4254 28.4375 16.5625 28.4375C15.6996 28.4375 15 29.1371 15 30C15 30.8629 15.6996 31.5625 16.5625 31.5625Z" fill="#0296D8"/>
</g>
</g>
</g>
</g>
<defs>
<clipPath id="clip0_1748_326">
<rect width="40" height="40" fill="white"/>
</clipPath>
</defs>
</svg>

<svg width="40" height="40" fill="none" xmlns="http://www.w3.org/2000/svg"><g fill="#0296D8" clip-path="url(#clip0_1748_326)"><path d="M21.797 28.438a3.129 3.129 0 0 0 3.125 3.125h3.672a3.129 3.129 0 0 0 3.125-3.125v-3.672a3.129 3.129 0 0 0-3.125-3.125h-3.672a3.129 3.129 0 0 0-3.125 3.125v3.672Zm3.125-3.672h3.672l.002 3.671h-3.674v-3.671ZM30.156 17.969a1.563 1.563 0 1 0 0-3.125 1.563 1.563 0 0 0 0 3.125ZM23.36 17.969a1.563 1.563 0 1 0 0-3.125 1.563 1.563 0 0 0 0 3.125Z"/><path d="M38.438 27.5c.862 0 1.562-.7 1.562-1.563V9.375a6.257 6.257 0 0 0-6.25-6.25h-2.031V1.562a1.563 1.563 0 0 0-3.125 0v1.563h-7.11V1.562a1.563 1.563 0 0 0-3.125 0v1.563h-7.03V1.562a1.562 1.562 0 1 0-3.126 0v1.563H6.25A6.257 6.257 0 0 0 0 9.375V33.75A6.257 6.257 0 0 0 6.25 40h27.5A6.257 6.257 0 0 0 40 33.75a1.562 1.562 0 1 0-3.125 0 3.129 3.129 0 0 1-3.125 3.125H6.25a3.129 3.129 0 0 1-3.125-3.125V9.375A3.129 3.129 0 0 1 6.25 6.25h1.953v1.563a1.562 1.562 0 1 0 3.125 0V6.25h7.031v1.563a1.562 1.562 0 1 0 3.125 0V6.25h7.11v1.563a1.562 1.562 0 1 0 3.125 0V6.25h2.031a3.129 3.129 0 0 1 3.125 3.125v16.563c0 .863.7 1.562 1.563 1.562Z"/><path d="M9.766 31.563a1.562 1.562 0 1 0 0-3.125 1.562 1.562 0 0 0 0 3.125ZM9.766 17.969a1.563 1.563 0 1 0 0-3.125 1.563 1.563 0 0 0 0 3.125ZM9.766 24.766a1.562 1.562 0 1 0 0-3.125 1.562 1.562 0 0 0 0 3.125ZM16.563 24.766a1.562 1.562 0 1 0 0-3.125 1.562 1.562 0 0 0 0 3.125ZM16.563 17.969a1.563 1.563 0 1 0 0-3.125 1.563 1.563 0 0 0 0 3.125ZM16.563 31.563a1.563 1.563 0 1 0 0-3.126 1.563 1.563 0 0 0 0 3.125Z"/></g></svg>
